packages/merlin-www-assets/imports/vogue/icons/card-image-gallery.svg

<svg viewBox="0 0 16 13" xmlns="http://www.w3.org/2000/svg"><title>Gallery</title><path d="m16 13h-13v-10h13zm-12-1h11v-8h-11zm-3-2h-1v-10h13v1h-12z"/></svg>

<svg viewBox="0 0 16 13"><title>Gallery</title><path d="M16 13H3V3h13zM4 12h11V4H4zm-3-2H0V0h13v1H1z"/></svg>
